src/main/webapp/ui/src/assets/branding/msteams/logo.svg

<svg enable-background="new 0 0 100 100" viewBox="0 0 100 100" xmlns="http://www.w3.org/2000/svg" xmlns:xlink="http://www.w3.org/1999/xlink"><linearGradient id="a" gradientUnits="userSpaceOnUse" x1="26.8269" x2="45.6456" y1="33.7034" y2="66.2967"><stop offset="0" stop-color="#5a62c3"/><stop offset=".5" stop-color="#4d55bd"/><stop offset="1" stop-color="#3940ab"/></linearGradient><path d="m0 0h100v100h-100z" fill="#fff"/><path d="m61.1 43.4h14.6c1.4 0 2.5 1.1 2.5 2.5v13.3c0 5.1-4.1 9.2-9.2 9.2-5.1 0-9.2-4.1-9.2-9.2v-14.5c0-.7.6-1.3 1.3-1.3z" fill="#5059c9"/><circle cx="71" cy="34.9" fill="#5059c9" r="5.9"/><circle cx="52.6" cy="32.3" fill="#7b83eb" r="8.5"/><path d="m64 43.4h-24c-1.4 0-2.4 1.2-2.4 2.5v15.1c-.2 8.2 6.2 15 14.4 15.2 8.2-.2 14.6-7 14.4-15.1v-15.1c0-1.4-1.1-2.5-2.4-2.6z" fill="#7b83eb"/><path d="m53.3 43.4v21.2c0 1-.6 1.8-1.5 2.2-.3.2-.6.2-.9.2h-12.2c-.2-.4-.3-.9-.5-1.3-.5-1.5-.7-3.1-.7-4.6v-15.1c0-1.4 1-2.5 2.4-2.5h13.4z" opacity=".1"/><path d="m52 43.4v22.6c0 .3-.1.6-.2.9-.4.9-1.2 1.5-2.2 1.5h-10.3c-.2-.4-.4-.9-.6-1.3s-.3-.9-.5-1.3c-.5-1.5-.7-3.1-.7-4.6v-15.2c0-1.4 1-2.5 2.4-2.5h12.1z" opacity=".2"/><path d="m52 43.4v19.9c0 1.3-1.1 2.4-2.4 2.4h-11.4c-.5-1.5-.7-3.1-.7-4.6v-15.1c0-1.4 1-2.5 2.4-2.5h12.1z" opacity=".2"/><path d="m50.7 43.4v19.9c0 1.3-1.1 2.4-2.4 2.4h-10c-.5-1.5-.7-3.1-.7-4.6v-15.1c0-1.4 1-2.5 2.4-2.5h10.7z" opacity=".2"/><path d="m53.3 36.7v4.1c-.2 0-.4 0-.7 0s-.4 0-.7 0c-.4 0-.9-.1-1.3-.2-2.7-.6-4.8-2.5-5.9-5-.2-.4-.3-.9-.4-1.3h6.5c1.4-0 2.5 1 2.5 2.4z" opacity=".1"/><path d="m52 38v2.8c-.4 0-.9-.1-1.3-.2-2.7-.6-4.8-2.5-5.9-5h4.8c1.3 0 2.4 1.1 2.4 2.4z" opacity=".2"/><path d="m52 38v2.8c-.4 0-.9-.1-1.3-.2-2.7-.6-4.8-2.5-5.9-5h4.8c1.3 0 2.4 1.1 2.4 2.4z" opacity=".2"/><path d="m50.7 38v2.6c-2.7-.6-4.8-2.5-5.9-5h3.5c1.3 0 2.4 1.1 2.4 2.4z" opacity=".2"/><path d="m24.2 35.6h24c1.3 0 2.4 1.1 2.4 2.4v24c0 1.3-1.1 2.4-2.4 2.4h-24c-1.3 0-2.4-1.1-2.4-2.4v-24c-0-1.3 1.1-2.4 2.4-2.4z" fill="url(#a)"/><path d="m42.6 44.7h-4.8v13.1h-3.1v-13.1h-4.8v-2.5h12.6v2.5z" fill="#fff"/></svg>

<?xml version="1.0" encoding="utf-8"?>
<!-- Generator: Adobe Illustrator 27.9.0, SVG Export Plug-In . SVG Version: 6.00 Build 0)  -->
<svg version="1.1" id="Layer_1" xmlns="http://www.w3.org/2000/svg" xmlns:xlink="http://www.w3.org/1999/xlink" x="0px" y="0px"
	 viewBox="0 0 100 100" style="enable-background:new 0 0 100 100;" xml:space="preserve">
<style type="text/css">
	.st0{fill:#FFFFFF;}
	.st1{fill:#5059C9;}
	.st2{fill:#7B83EB;}
	.st3{opacity:0.1;enable-background:new    ;}
	.st4{opacity:0.2;enable-background:new    ;}
	.st5{fill:url(#SVGID_1_);}
</style>
<rect class="st0" width="100" height="100"/>
<g>
	<path class="st1" d="M61.1,43.4h14.6c1.4,0,2.5,1.1,2.5,2.5l0,0v13.3c0,5.1-4.1,9.2-9.2,9.2l0,0h0c-5.1,0-9.2-4.1-9.2-9.2
		c0,0,0,0,0,0V44.7C59.8,44,60.4,43.4,61.1,43.4L61.1,43.4z"/>
	<circle class="st1" cx="71" cy="34.9" r="5.9"/>
	<circle class="st2" cx="52.6" cy="32.3" r="8.5"/>
	<path class="st2" d="M64,43.4h-24c-1.4,0-2.4,1.2-2.4,2.5v15.1C37.4,69.2,43.8,76,52,76.2c8.2-0.2,14.6-7,14.4-15.1V46
		C66.4,44.6,65.3,43.5,64,43.4z"/>
	<path class="st3" d="M53.3,43.4v21.2c0,1-0.6,1.8-1.5,2.2C51.5,67,51.2,67,50.9,67H38.7c-0.2-0.4-0.3-0.9-0.5-1.3
		c-0.5-1.5-0.7-3.1-0.7-4.6V46c0-1.4,1-2.5,2.4-2.5H53.3z"/>
	<path class="st4" d="M52,43.4V66c0,0.3-0.1,0.6-0.2,0.9c-0.4,0.9-1.2,1.5-2.2,1.5H39.3c-0.2-0.4-0.4-0.9-0.6-1.3
		c-0.2-0.4-0.3-0.9-0.5-1.3c-0.5-1.5-0.7-3.1-0.7-4.6V46c0-1.4,1-2.5,2.4-2.5H52z"/>
	<path class="st4" d="M52,43.4v19.9c0,1.3-1.1,2.4-2.4,2.4H38.2c-0.5-1.5-0.7-3.1-0.7-4.6V46c0-1.4,1-2.5,2.4-2.5H52z"/>
	<path class="st4" d="M50.7,43.4v19.9c0,1.3-1.1,2.4-2.4,2.4h-10c-0.5-1.5-0.7-3.1-0.7-4.6V46c0-1.4,1-2.5,2.4-2.5H50.7z"/>
	<path class="st3" d="M53.3,36.7v4.1c-0.2,0-0.4,0-0.7,0s-0.4,0-0.7,0c-0.4,0-0.9-0.1-1.3-0.2c-2.7-0.6-4.8-2.5-5.9-5
		c-0.2-0.4-0.3-0.9-0.4-1.3h6.5C52.2,34.3,53.3,35.3,53.3,36.7z"/>
	<path class="st4" d="M52,38v2.8c-0.4,0-0.9-0.1-1.3-0.2c-2.7-0.6-4.8-2.5-5.9-5h4.8C50.9,35.6,52,36.7,52,38z"/>
	<path class="st4" d="M52,38v2.8c-0.4,0-0.9-0.1-1.3-0.2c-2.7-0.6-4.8-2.5-5.9-5h4.8C50.9,35.6,52,36.7,52,38z"/>
	<path class="st4" d="M50.7,38v2.6c-2.7-0.6-4.8-2.5-5.9-5h3.5C49.6,35.6,50.7,36.7,50.7,38z"/>
	
		<linearGradient id="SVGID_1_" gradientUnits="userSpaceOnUse" x1="26.8269" y1="-1273.6299" x2="45.6456" y2="-1241.0366" gradientTransform="matrix(1 0 0 1 0 1307.3333)">
		<stop  offset="0" style="stop-color:#5A62C3"/>
		<stop  offset="0.5" style="stop-color:#4D55BD"/>
		<stop  offset="1" style="stop-color:#3940AB"/>
	</linearGradient>
	<path class="st5" d="M24.2,35.6h24c1.3,0,2.4,1.1,2.4,2.4v24c0,1.3-1.1,2.4-2.4,2.4h-24c-1.3,0-2.4-1.1-2.4-2.4V38
		C21.8,36.7,22.9,35.6,24.2,35.6z"/>
	<path class="st0" d="M42.6,44.7h-4.8v13.1h-3.1V44.7h-4.8v-2.5h12.6V44.7z"/>
</g>
</svg>
